symbolic/status/alarm-symbolic.svg

<svg width="16" height="16" version="1.1" xmlns="http://www.w3.org/2000/svg">
 <path d="m4.5 0c-1.933 0-3.5 1.567-3.5 3.5 2.788e-4 0.42948 0.0796 0.85524 0.234 1.256 1.2766-2.0347 3.3989-3.3892 5.782-3.69-0.65959-0.68156-1.5675-1.0662-2.516-1.066zm7 0c-0.94707 8.3467e-4 -1.8534 0.38544-2.512 1.066 2.3806 0.30208 4.5003 1.6555 5.776 3.688 0.15484-0.40001 0.23484-0.82507 0.236-1.254 0-1.933-1.567-3.5-3.5-3.5zm-3.5 2c-3.866 0-7 3.134-7 7 1.383e-4 1.6505 0.58347 3.2478 1.647 4.51 0.14525 0.17265 0.29876 0.33818 0.46 0.496-0.30078-0.03238-0.60004 0.07313-0.814 0.287-0.39038 0.3905-0.39038 1.0235 0 1.414 0.3905 0.39038 1.0235 0.39038 1.414 0 0.26278-0.26345 0.35755-0.65102 0.246-1.006 0.1903 0.13475 0.38721 0.2599 0.59 0.375 0.19373 0.11044 0.39262 0.21155 0.596 0.303 0.01863 0.0084 0.037297 0.01675 0.056 0.025 0.17606 0.07701 0.35521 0.14673 0.537 0.209 0.056421 0.01973 0.11309 0.03873 0.17 0.057 0.16132 0.05089 0.32442 0.09592 0.489 0.135 0.064128 0.01524 0.12847 0.02958 0.193 0.043 0.16032 0.03298 0.32176 0.06033 0.484 0.082 0.074849 0.01021 0.14986 0.01922 0.225 0.027 0.17315 0.01881 0.34693 0.03115 0.521 0.037 0.061971 0.0028 0.12398 0.0048 0.186 6e-3 0.23377 2.9e-5 0.4674-0.01165 0.7-0.035 1.1959-0.1218 2.3404-0.54954 3.323-1.242 0.0073-0.0047 0.01468-0.0093 0.022-0.014-0.10782 0.35294-0.01249 0.73658 0.248 0.998 0.3905 0.39038 1.0235 0.39038 1.414 0 0.39038-0.3905 0.39038-1.0235 0-1.414-0.21707-0.21663-0.52153-0.32168-0.826-0.285 0.15571-0.15265 0.30421-0.31249 0.445-0.479 0.01037-0.01097 0.0207-0.02197 0.031-0.033 4e-3 -0.0053 8e-3 -0.01066 0.012-0.016 0.13001-0.15656 0.25312-0.31871 0.369-0.486 0.01986-0.02653 0.03952-0.05319 0.059-0.08 0.10478-0.15663 0.2032-0.31743 0.295-0.482 0.02444-0.04208 0.04844-0.08442 0.072-0.127 0.08506-0.1612 0.16378-0.32566 0.236-0.493 0.02219-0.04709 0.04386-0.09443 0.065-0.142 0.06141-0.15232 0.11745-0.30674 0.168-0.463 0.0252-0.0726 0.0492-0.14561 0.072-0.219 0.04244-0.14574 0.08013-0.29281 0.113-0.441 0.01901-0.07802 0.03668-0.15637 0.053-0.235 0.02718-0.1489 0.04953-0.29865 0.067-0.449 0.01188-0.084471 0.02221-0.16915 0.031-0.254 0.019175-0.20245 0.029518-0.40565 0.031-0.609 0-3.866-3.134-7-7-7zm0 2c2.7614 0 5 2.2386 5 5 0 2.7614-2.2386 5-5 5-2.7614 0-5-2.2386-5-5-2.09e-5 -0.16698 0.0083229-0.33386 0.025-0.5 0.25678-2.555 2.4072-4.5 4.975-4.5z" fill="#f8f8f2"/>
 <path d="m5.1716 7.1707c-0.39174 0.39174-0.39174 1.0225 0 1.4142l2.1213 2.1213c0.39174 0.39174 1.0225 0.39174 1.4142 0l2.8284-2.8284c0.39174-0.39174 0.39174-1.0225 0-1.4142-0.39174-0.39174-1.0225-0.39174-1.4142 0l-2.1213 2.1213-1.4142-1.4142c-0.39174-0.39174-1.0225-0.39174-1.4142 0z" fill="#f8f8f2"/>
</svg>

<svg xmlns="http://www.w3.org/2000/svg" width="16" height="16" version="1.1">
 <path style="fill:#dfdfdf" d="M 4.5,0 A 3.5,3.5 0 0 0 1,3.5 3.5,3.5 0 0 0 1.2344,4.7559 C 2.4865,2.7693 4.5816,1.3678 7.0156,1.0664 A 3.5,3.5 0 0 0 4.5,0 Z M 11.5,0 A 3.5,3.5 0 0 0 8.9883,1.0664 C 11.42,1.3687 13.512,2.7696 14.764,4.7539 A 3.5,3.5 0 0 0 15,3.5 3.5,3.5 0 0 0 11.5,0 Z M 8,2 A 7,7 0 0 0 1,9 7,7 0 0 0 2.6465,13.51 7,7 0 0 0 3.1074,14.006 1,1 0 0 0 2.293,14.293 1,1 0 0 0 2.293,15.707 1,1 0 0 0 3.707,15.707 1,1 0 0 0 3.9531,14.701 7,7 0 0 0 4.543,15.076 7,7 0 0 0 5.1387,15.379 7,7 0 0 0 5.1953,15.404 7,7 0 0 0 5.7324,15.613 7,7 0 0 0 5.9023,15.67 7,7 0 0 0 6.3906,15.805 7,7 0 0 0 6.584,15.848 7,7 0 0 0 7.0684,15.93 7,7 0 0 0 7.293,15.957 7,7 0 0 0 7.8145,15.994 7,7 0 0 0 8,16 7,7 0 0 0 8.6992,15.965 7,7 0 0 0 12.023,14.723 7,7 0 0 0 12.045,14.709 1,1 0 0 0 12.293,15.707 1,1 0 0 0 13.707,15.707 1,1 0 0 0 13.707,14.293 1,1 0 0 0 12.881,14.008 7,7 0 0 0 13.326,13.529 7,7 0 0 0 13.357,13.496 7,7 0 0 0 13.369,13.48 7,7 0 0 0 13.738,12.994 7,7 0 0 0 13.797,12.914 7,7 0 0 0 14.092,12.432 7,7 0 0 0 14.164,12.305 7,7 0 0 0 14.4,11.812 7,7 0 0 0 14.465,11.67 7,7 0 0 0 14.633,11.207 7,7 0 0 0 14.705,10.988 7,7 0 0 0 14.818,10.547 7,7 0 0 0 14.871,10.312 7,7 0 0 0 14.938,9.8633 7,7 0 0 0 14.969,9.6094 7,7 0 0 0 15,9 7,7 0 0 0 8,2 Z M 8,4 A 5,5 0 0 1 13,9 5,5 0 0 1 8,14 5,5 0 0 1 3,9 5,5 0 0 1 3.0254,8.5 5,5 0 0 1 8,4 Z M 10.49,5.9961 A 0.50005,0.50005 0 0 0 10.146,6.1465 L 8,8.293 6.3535,6.6465 A 0.50005,0.50005 0 1 0 5.6465,7.3535 L 7.6465,9.3535 A 0.50005,0.50005 0 0 0 8.3535,9.3535 L 10.854,6.8535 A 0.50005,0.50005 0 0 0 10.49,5.9961 Z"/>
</svg>
